X: 24756
T: Madoline O'Connell, The
R: slide
M: 12/8
K: Dmajor
|:"D" F2Ad2A F2Ad2A|"G" (BAB) (ede) "A" (fdB) (ABc)|"D" F2Ad2A F2Ad2A|"G" (BAB) (ede) "D" (fdc) d3:|
|:"D" f2f (fed) "C" e2e (edc)|"Em" d2d (ede) "D" (fde) A3|f2f (fed) "C" e2e (edc)|"G" d2d (ede) "D" (fdc) d3:|
|:"D" f2a (agf) "C" e2g (gfe)|"G" d2e (fde) "A" (fde) A3|"D" f2a (agf) "C" e2g (gfe)|"G" d2e (fde) "D" (fde) d3:|

